X: 6214
T: Carly's Trip To Ecclefechan
R: reel
M: 4/4
K: Aminor
|:"Am" Aaae gge"Dm"d-|dcAc ddcB|"Am"Aaae gge"Dm"d-|dcAc d3c|
"Am"Aaae gge"Dm"d-|dcAc ddcB|"Am"Aaae gge"Dm"d-|dcAc d2cB||
"F"cAAc "G"dBB"Am"c-|cBAe dcBA|"F"cAAc "G"dBB"Am"A-|
Ac (3BAG A3B|"F"cAAc "G"dBB"Am"c-|cBAe dcBA|
"F"cAAc "G"dBB"Dm"A-|1 Ac (3BAG A2cB:|2 Ac (3BAG A4||

